X:7
T:Liverpool Hornpipe, The
S:John Moore's Book 3
Z:Transcribed by Steve Mansfield 05/2021
%%VWML: Moore1-4495-p5-0
F:https://www.vwml.org/record/Moore3/4495/p5
M:C
L:1/8
K:D
AG | FDFA dfaf | gfed dcBA | GBGB FAFA | EFGA GFED | 
FDFA dfaf | gfed dcBA | fefg afdf | fedc d2 :|
|: A2 | dfdf cece | Bcde dcBA | GBGB FAFA | EFGA GFED | 
FDFA dfaf | gfed dcBA | fefg afdf | fedc d2 :|

